Newaita-dark/devices/32/media-flash-cf.svg

<svg height="32pt" viewBox="0 0 32 32" width="32pt" xmlns="http://www.w3.org/2000/svg" xmlns:xlink="http://www.w3.org/1999/xlink"><linearGradient id="a" gradientUnits="userSpaceOnUse" x1="15.876521" x2="15.876521" y1="27.982205" y2="29.30524887502"><stop offset="0" stop-opacity=".27451"/><stop offset="1" stop-opacity="0"/></linearGradient><linearGradient id="b"><stop offset="0" stop-opacity=".313725"/><stop offset=".222222" stop-opacity=".27451"/><stop offset="1" stop-opacity="0"/></linearGradient><radialGradient id="c" cx="450.90894" cy="189.57936" gradientTransform="matrix(.00000017 -.0781325 -.140638 -.0000001 50.476844 63.543604)" gradientUnits="userSpaceOnUse" r="21.166656" xlink:href="#b"/><radialGradient id="d" cx="450.90894" cy="189.57936" gradientTransform="matrix(-.00000017 .0781325 .140638 .0000001 -18.723812 -7.579209)" gradientUnits="userSpaceOnUse" r="21.166656" xlink:href="#b"/><radialGradient id="e" cx="450.90894" cy="189.57936" gradientTransform="matrix(-.00000017 -.0781325 .140638 -.0000001 -18.723812 63.543604)" gradientUnits="userSpaceOnUse" r="21.166656" xlink:href="#b"/><radialGradient id="f" cx="450.90894" cy="189.57936" gradientTransform="matrix(.00000017 .0781325 -.140638 .0000001 50.476842 -7.57921)" gradientUnits="userSpaceOnUse" r="21.166656" xlink:href="#b"/><linearGradient id="g" gradientUnits="userSpaceOnUse" x1="15.876524" x2="15.876524" y1="28.033934" y2="2.89610412498"><stop offset="0" stop-color="#424242"/><stop offset="1" stop-color="#616161"/></linearGradient><linearGradient id="h" gradientUnits="userSpaceOnUse" x1="15.876524" x2="15.876524" y1="28.033934" y2="2.89610412498"><stop offset="0" stop-color="#bdbdbd"/><stop offset="1" stop-color="#e0e0e0"/></linearGradient><linearGradient id="i" gradientUnits="userSpaceOnUse" x1="13.23043687502" x2="13.23043687502" y1="28.033934" y2="2.89610412498"><stop offset="0" stop-color="#f44336"/><stop offset="1" stop-color="#ef5350"/></linearGradient><linearGradient id="j" gradientUnits="userSpaceOnUse" x1="15.876524" x2="15.876524" y1="28.033934" y2="2.89610412498"><stop offset="0" stop-color="#ffca28"/><stop offset="1" stop-color="#ffd54f"/></linearGradient><path d="m7.609375 28.007812h16.535156v1.347657h-16.535156zm0 0" fill="url(#a)"/><path d="m24.144531 27.980469h2.648438v-1.320313h-2.648438zm0 0" fill="url(#c)"/><path d="m7.609375 27.980469h-2.648437v1.324219h2.648437zm0 0" fill="url(#d)"/><path d="m7.609375 27.980469h-2.648437v-1.320313h2.648437zm0 0" fill="url(#e)"/><path d="m24.144531 27.980469h2.648438v1.324219h-2.648438zm0 0" fill="url(#f)"/><path d="m6.613281 2.894531h18.523438c.730469 0 1.324219.59375 1.324219 1.324219v22.492188c0 .730468-.59375 1.324218-1.324219 1.324218h-18.523438c-.730469 0-1.320312-.59375-1.320312-1.324218v-22.492188c0-.730469.589843-1.324219 1.320312-1.324219zm0 0" fill="url(#g)"/><path d="m15.875 4.226562c-.347656 0-.683594.136719-.929688.382813l-.277343.277344h-6.730469c-.726562 0-1.316406.589843-1.316406 1.316406v18.523437c0 .726563.589844 1.316407 1.316406 1.316407h6.730469l.277343.277343c.246094.246094.582032.382813.929688.382813h7.941406c.726563 0 1.316406-.589844 1.316406-1.316406v-19.84375c0-.726563-.589843-1.316407-1.316406-1.316407zm0 0" fill="url(#h)"/><path d="m9.921875 4.878906h4.632813v21.171875h-4.632813zm0 0" fill="url(#i)"/><path d="m7.9375 4.886719c-.726562 0-1.316406.589843-1.316406 1.316406v18.523437c0 .726563.589844 1.316407 1.316406 1.316407h1.984375v-21.15625zm0 0" fill="url(#j)"/><g fill="none" stroke="#212121" stroke-linecap="round" stroke-linejoin="round"><path d="m253.975747-147.381457c-5.561969 0-10.936456 2.187291-14.87358 6.124415l-4.437076 4.437076h-107.677218c-11.62389 0-21.060489 9.436599-21.060489 21.060489v296.3467c0 11.62389 9.436599 21.060489 21.060489 21.060489h107.677218l4.437076 4.437076c3.937124 3.937124 9.311611 6.124416 14.87358 6.124416h127.050367c11.62389 0 21.060489-9.436599 21.060489-21.060489v-317.469683c0-11.62389-9.436599-21.060489-21.060489-21.060489zm0 0" stroke-width="3" transform="matrix(.062506 0 0 .062506 0 13.438783)"/><path d="m158.734842-136.944954h74.117922v338.717654h-74.117922zm0 0" stroke-width="3" transform="matrix(.062506 0 0 .062506 0 13.438783)"/><path d="m479.954173 295.483597c-43.932813 0-79.598699 35.665886-79.598699 79.598699v1120.050535c0 43.932813 35.665886 79.598699 79.598699 79.598699h119.988543v-1279.247933zm0 0" stroke-width="11.338583" transform="scale(.016538)"/></g><path d="m6.613281 2.894531c-.730469 0-1.320312.589844-1.320312 1.324219v.332031c0-.734375.589843-1.324219 1.320312-1.324219h18.523438c.734375 0 1.324219.589844 1.324219 1.324219v-.332031c0-.734375-.589844-1.324219-1.324219-1.324219zm0 0" fill="#fff" fill-opacity=".313725"/><path d="m5.292969 26.214844v.496094c0 .734374.589843 1.324218 1.320312 1.324218h18.523438c.734375 0 1.324219-.589844 1.324219-1.324218v-.496094c0 .734375-.589844 1.324218-1.324219 1.324218h-18.523438c-.730469 0-1.320312-.589843-1.320312-1.324218zm0 0" fill-opacity=".235294"/><path d="m105.802396-168.691922h296.346701c11.686384 0 21.185477 9.499093 21.185477 21.185477v359.840637c0 11.686384-9.499093 21.185477-21.185477 21.185477h-296.346701c-11.686384 0-21.122982-9.499093-21.122982-21.185477v-359.840637c0-11.686384 9.436598-21.185477 21.122982-21.185477zm0 0" fill="none" stroke="#212121" stroke-linecap="round" stroke-linejoin="round" stroke-width="3" transform="matrix(.062506 0 0 .062506 0 13.438783)"/></svg>

<?xml version="1.0" encoding="UTF-8"?>
<svg xmlns="http://www.w3.org/2000/svg" xmlns:xlink="http://www.w3.org/1999/xlink" width="32pt" height="32pt" viewBox="0 0 32 32" version="1.1">
<defs>
<linearGradient id="linear0" gradientUnits="userSpaceOnUse" x1="254" y1="233.5" x2="254" y2="254.66667" gradientTransform="matrix(0.062506,0,0,0.062506,-0.00000250024,13.387054)">
<stop offset="0" style="stop-color:rgb(0%,0%,0%);stop-opacity:0.27451;"/>
<stop offset="1" style="stop-color:rgb(0%,0%,0%);stop-opacity:0;"/>
</linearGradient>
<radialGradient id="radial0" gradientUnits="userSpaceOnUse" cx="450.90894" cy="189.57936" fx="450.90894" fy="189.57936" r="21.166656" gradientTransform="matrix(0.00000017417,-0.0781325,-0.140638,-0.000000101539,50.476844,63.543604)">
<stop offset="0" style="stop-color:rgb(0%,0%,0%);stop-opacity:0.313725;"/>
<stop offset="0.222222" style="stop-color:rgb(0%,0%,0%);stop-opacity:0.27451;"/>
<stop offset="1" style="stop-color:rgb(0%,0%,0%);stop-opacity:0;"/>
</radialGradient>
<radialGradient id="radial1" gradientUnits="userSpaceOnUse" cx="450.90894" cy="189.57936" fx="450.90894" fy="189.57936" r="21.166656" gradientTransform="matrix(-0.00000017417,0.0781325,0.140638,0.000000101539,-18.723812,-7.579209)">
<stop offset="0" style="stop-color:rgb(0%,0%,0%);stop-opacity:0.313725;"/>
<stop offset="0.222222" style="stop-color:rgb(0%,0%,0%);stop-opacity:0.27451;"/>
<stop offset="1" style="stop-color:rgb(0%,0%,0%);stop-opacity:0;"/>
</radialGradient>
<radialGradient id="radial2" gradientUnits="userSpaceOnUse" cx="450.90894" cy="189.57936" fx="450.90894" fy="189.57936" r="21.166656" gradientTransform="matrix(-0.00000017417,-0.0781325,0.140638,-0.000000101539,-18.723812,63.543604)">
<stop offset="0" style="stop-color:rgb(0%,0%,0%);stop-opacity:0.313725;"/>
<stop offset="0.222222" style="stop-color:rgb(0%,0%,0%);stop-opacity:0.27451;"/>
<stop offset="1" style="stop-color:rgb(0%,0%,0%);stop-opacity:0;"/>
</radialGradient>
<radialGradient id="radial3" gradientUnits="userSpaceOnUse" cx="450.90894" cy="189.57936" fx="450.90894" fy="189.57936" r="21.166656" gradientTransform="matrix(0.00000017417,0.0781325,-0.140638,0.000000101539,50.476842,-7.57921)">
<stop offset="0" style="stop-color:rgb(0%,0%,0%);stop-opacity:0.313725;"/>
<stop offset="0.222222" style="stop-color:rgb(0%,0%,0%);stop-opacity:0.27451;"/>
<stop offset="1" style="stop-color:rgb(0%,0%,0%);stop-opacity:0;"/>
</radialGradient>
<linearGradient id="linear1" gradientUnits="userSpaceOnUse" x1="254" y1="233.5" x2="254" y2="-168.66667" gradientTransform="matrix(0.062506,0,0,0.062506,0,13.438783)">
<stop offset="0" style="stop-color:rgb(25.882353%,25.882353%,25.882353%);stop-opacity:1;"/>
<stop offset="1" style="stop-color:rgb(38.039216%,38.039216%,38.039216%);stop-opacity:1;"/>
</linearGradient>
<linearGradient id="linear2" gradientUnits="userSpaceOnUse" x1="254" y1="233.5" x2="254" y2="-168.66667" gradientTransform="matrix(0.062506,0,0,0.062506,0,13.438783)">
<stop offset="0" style="stop-color:rgb(74.117647%,74.117647%,74.117647%);stop-opacity:1;"/>
<stop offset="1" style="stop-color:rgb(87.843137%,87.843137%,87.843137%);stop-opacity:1;"/>
</linearGradient>
<linearGradient id="linear3" gradientUnits="userSpaceOnUse" x1="211.66667" y1="233.5" x2="211.66667" y2="-168.66667" gradientTransform="matrix(0.062506,0,0,0.062506,0,13.438783)">
<stop offset="0" style="stop-color:rgb(95.686275%,26.27451%,21.176471%);stop-opacity:1;"/>
<stop offset="1" style="stop-color:rgb(93.72549%,32.54902%,31.372549%);stop-opacity:1;"/>
</linearGradient>
<linearGradient id="linear4" gradientUnits="userSpaceOnUse" x1="254" y1="233.5" x2="254" y2="-168.66667" gradientTransform="matrix(0.062506,0,0,0.062506,0,13.438783)">
<stop offset="0" style="stop-color:rgb(100%,79.215686%,15.686275%);stop-opacity:1;"/>
<stop offset="1" style="stop-color:rgb(100%,83.529412%,30.980392%);stop-opacity:1;"/>
</linearGradient>
</defs>
<g id="surface1">
<path style=" stroke:none;fill-rule:nonzero;fill:url(#linear0);" d="M 7.609375 28.007812 L 24.144531 28.007812 L 24.144531 29.355469 L 7.609375 29.355469 Z M 7.609375 28.007812 "/>
<path style=" stroke:none;fill-rule:nonzero;fill:url(#radial0);" d="M 24.144531 27.980469 L 26.792969 27.980469 L 26.792969 26.660156 L 24.144531 26.660156 Z M 24.144531 27.980469 "/>
<path style=" stroke:none;fill-rule:nonzero;fill:url(#radial1);" d="M 7.609375 27.980469 L 4.960938 27.980469 L 4.960938 29.304688 L 7.609375 29.304688 Z M 7.609375 27.980469 "/>
<path style=" stroke:none;fill-rule:nonzero;fill:url(#radial2);" d="M 7.609375 27.980469 L 4.960938 27.980469 L 4.960938 26.660156 L 7.609375 26.660156 Z M 7.609375 27.980469 "/>
<path style=" stroke:none;fill-rule:nonzero;fill:url(#radial3);" d="M 24.144531 27.980469 L 26.792969 27.980469 L 26.792969 29.304688 L 24.144531 29.304688 Z M 24.144531 27.980469 "/>
<path style=" stroke:none;fill-rule:nonzero;fill:url(#linear1);" d="M 6.613281 2.894531 L 25.136719 2.894531 C 25.867188 2.894531 26.460938 3.488281 26.460938 4.21875 L 26.460938 26.710938 C 26.460938 27.441406 25.867188 28.035156 25.136719 28.035156 L 6.613281 28.035156 C 5.882812 28.035156 5.292969 27.441406 5.292969 26.710938 L 5.292969 4.21875 C 5.292969 3.488281 5.882812 2.894531 6.613281 2.894531 Z M 6.613281 2.894531 "/>
<path style=" stroke:none;fill-rule:nonzero;fill:url(#linear2);" d="M 15.875 4.226562 C 15.527344 4.226562 15.191406 4.363281 14.945312 4.609375 L 14.667969 4.886719 L 7.9375 4.886719 C 7.210938 4.886719 6.621094 5.476562 6.621094 6.203125 L 6.621094 24.726562 C 6.621094 25.453125 7.210938 26.042969 7.9375 26.042969 L 14.667969 26.042969 L 14.945312 26.320312 C 15.191406 26.566406 15.527344 26.703125 15.875 26.703125 L 23.816406 26.703125 C 24.542969 26.703125 25.132812 26.113281 25.132812 25.386719 L 25.132812 5.542969 C 25.132812 4.816406 24.542969 4.226562 23.816406 4.226562 Z M 15.875 4.226562 "/>
<path style=" stroke:none;fill-rule:nonzero;fill:url(#linear3);" d="M 9.921875 4.878906 L 14.554688 4.878906 L 14.554688 26.050781 L 9.921875 26.050781 Z M 9.921875 4.878906 "/>
<path style=" stroke:none;fill-rule:nonzero;fill:url(#linear4);" d="M 7.9375 4.886719 C 7.210938 4.886719 6.621094 5.476562 6.621094 6.203125 L 6.621094 24.726562 C 6.621094 25.453125 7.210938 26.042969 7.9375 26.042969 L 9.921875 26.042969 L 9.921875 4.886719 Z M 7.9375 4.886719 "/>
<path style="fill:none;stroke-width:3;stroke-linecap:round;stroke-linejoin:round;stroke:rgb(12.941176%,12.941176%,12.941176%);stroke-opacity:1;stroke-miterlimit:4;" d="M 253.975747 -147.381457 C 248.413778 -147.381457 243.039291 -145.194166 239.102167 -141.257042 L 234.665091 -136.819966 L 126.987873 -136.819966 C 115.363983 -136.819966 105.927384 -127.383367 105.927384 -115.759477 L 105.927384 180.587223 C 105.927384 192.211113 115.363983 201.647712 126.987873 201.647712 L 234.665091 201.647712 L 239.102167 206.084788 C 243.039291 210.021912 248.413778 212.209204 253.975747 212.209204 L 381.026114 212.209204 C 392.650004 212.209204 402.086603 202.772605 402.086603 191.148715 L 402.086603 -126.320968 C 402.086603 -137.944858 392.650004 -147.381457 381.026114 -147.381457 Z M 253.975747 -147.381457 " transform="matrix(0.062506,0,0,0.062506,0,13.438783)"/>
<path style="fill:none;stroke-width:3;stroke-linecap:round;stroke-linejoin:round;stroke:rgb(12.941176%,12.941176%,12.941176%);stroke-opacity:1;stroke-miterlimit:4;" d="M 158.734842 -136.944954 L 232.852764 -136.944954 L 232.852764 201.7727 L 158.734842 201.7727 Z M 158.734842 -136.944954 " transform="matrix(0.062506,0,0,0.062506,0,13.438783)"/>
<path style="fill:none;stroke-width:11.338583;stroke-linecap:round;stroke-linejoin:round;stroke:rgb(12.941176%,12.941176%,12.941176%);stroke-opacity:1;stroke-miterlimit:4;" d="M 479.954173 295.483597 C 436.02136 295.483597 400.355474 331.149483 400.355474 375.082296 L 400.355474 1495.132831 C 400.355474 1539.065644 436.02136 1574.73153 479.954173 1574.73153 L 599.942716 1574.73153 L 599.942716 295.483597 Z M 479.954173 295.483597 " transform="matrix(0.016538,0,0,0.016538,0,0)"/>
<path style=" stroke:none;fill-rule:nonzero;fill:rgb(100%,100%,100%);fill-opacity:0.313725;" d="M 6.613281 2.894531 C 5.882812 2.894531 5.292969 3.484375 5.292969 4.21875 L 5.292969 4.550781 C 5.292969 3.816406 5.882812 3.226562 6.613281 3.226562 L 25.136719 3.226562 C 25.871094 3.226562 26.460938 3.816406 26.460938 4.550781 L 26.460938 4.21875 C 26.460938 3.484375 25.871094 2.894531 25.136719 2.894531 Z M 6.613281 2.894531 "/>
<path style=" stroke:none;fill-rule:nonzero;fill:rgb(0%,0%,0%);fill-opacity:0.235294;" d="M 5.292969 26.214844 L 5.292969 26.710938 C 5.292969 27.445312 5.882812 28.035156 6.613281 28.035156 L 25.136719 28.035156 C 25.871094 28.035156 26.460938 27.445312 26.460938 26.710938 L 26.460938 26.214844 C 26.460938 26.949219 25.871094 27.539062 25.136719 27.539062 L 6.613281 27.539062 C 5.882812 27.539062 5.292969 26.949219 5.292969 26.214844 Z M 5.292969 26.214844 "/>
<path style="fill:none;stroke-width:3;stroke-linecap:round;stroke-linejoin:round;stroke:rgb(12.941176%,12.941176%,12.941176%);stroke-opacity:1;stroke-miterlimit:4;" d="M 105.802396 -168.691922 L 402.149097 -168.691922 C 413.835481 -168.691922 423.334574 -159.192829 423.334574 -147.506445 L 423.334574 212.334192 C 423.334574 224.020576 413.835481 233.519669 402.149097 233.519669 L 105.802396 233.519669 C 94.116012 233.519669 84.679414 224.020576 84.679414 212.334192 L 84.679414 -147.506445 C 84.679414 -159.192829 94.116012 -168.691922 105.802396 -168.691922 Z M 105.802396 -168.691922 " transform="matrix(0.062506,0,0,0.062506,0,13.438783)"/>
</g>
</svg>
